X: 6
T: Missa Almana / Sanctus
N: Derived from Rue1002d-Missa_Almana-Sanctus.krn
C: Pierre de la Rue
%%abc-version 2.0
%%abcx-abcm2ps-target-version 5.9.1 (29 Sep 2008)
%%abc-creator hum2abc beta
%%abcx-conversion-date 2019/02/17 08:01:09
%%abc-edited-by Jesse Rodin
%%abc-edited-by Chris Gage 11-16-2012
%%abcx-initial-encoding-date 2012/11/18/
%%humdrum-veritas 4230716911
%%humdrum-veritas-data 207217227
%%linebreak <none>
%%barnumbers 0
L: 1/4
M: 2/1
Q: 1/2=120
%%staves [1 2 3 4]
V: 1 clef=treble
V: 2 clef=treble-8
V: 3 clef=treble-8
V: 4 clef=bass
K: F
[V:1] z8 | 
[V:2] F6EF | 
[V:3] z8 :
[V:4] F,,8 | 
[V:1] z8 | 
[V:2] G2F4ED | 
[V:3] x8 :
[V:4] B,,4B,,4 | 
[V:1] C8 | 
[V:2] F2EDC2A2- | 
[V:3] x8 | 
[V:4] A,,4A,,4 | 
[V:1] F4F4 | 
[V:2] A2GAB2A2- | 
[V:3] z8 :
[V:4] D,4D,4 | 
[V:1] E4E4 | 
[V:2] A2GFA2GF | 
[V:3] x8 :
[V:4] C,4z2C,2- | 
[V:1] A4A4 | 
[V:2] E4z2E2- | 
[V:3] x8 | 
[V:4] C,2B,,C,D,2C,2- | 
[V:1] G6FG [I:setbarnb 8]| 
[V:2] E2G3AB2 | 
[V:3] z8 :
[V:4] C,2B,,A,,G,,4 | 
[V:1] A2G4FE | 
[V:2] c3BG3A | 
[V:3] x8 :
[V:4] z4C,4 | 
[V:1] G2FED2A2- | 
[V:2] B3AF3G | 
[V:3] x8 | 
[V:4] B,,2B,,4A,,G,, | 
[V:1] A2GAB2A2- | 
[V:2] A3FF4 | 
[V:3] C8- :
[V:4] F,,8 | 
[V:1] A2GFA2GF | 
[V:2] z2c4BA | 
[V:3] C8 :
[V:4] F,,8 | 
[V:1] E2F4E2 | 
[V:2] c2BAG4 | 
[V:3] C8 | 
[V:4] A,,2F,,2C,4 | 
[V:1] F8 | 
[V:2] F2c4Bc | 
[V:3] F8- :
[V:4] F,,8 | 
[V:1] z2A4GA | 
[V:2] d2cBA4 | 
[V:3] F8 :
[V:4] z2F,4E,2 | 
[V:1] B2A4GF | 
[V:2] d4z2c2- | 
[V:3] F8 | 
[V:4] D,2C,B,,A,,4 | 
[V:1] A4E4 | 
[V:2] c2c4BA | 
[V:3] E8- :
[V:4] A,,4A,,4- | 
[V:1] z2E3FG2 | 
[V:2] c2BAG4 | 
[V:3] E8 :
[V:4] A,,4C,4 | 
[V:1] F2E2C2D2 | 
[V:2] F2E2F3G | 
[V:3] A8 | 
[V:4] D,2C,2A,,2B,,2 | 
[V:1] E2C2D2E2 | 
[V:2] E4z2E2 | 
[V:3] G8 :
[V:4] C,3A,,B,,2C,2 | 
[V:1] A,2A2G2E2 | 
[V:2] F3EC2G2 | 
[V:3] c8 :
[V:4] F,,4z2C,2 | 
[V:1] F2G3FD2 | 
[V:2] z2G3AB2 | 
[V:3] B8 | 
[V:4] D,2_E,3F,G,2 | 
[V:1] E3FG2A2- | 
[V:2] G2c3de2 | 
[V:3] c8- :
[V:4] C,4z2C,2 | 
[V:1] AEA4G2 | 
[V:2] c2f4e2 | 
[V:3] c8- :
[V:4] A,,2F,,2C,4 | 
[V:1] A8 | 
[V:2] f4z2F2 | 
[V:3] c8 | 
[V:4] F,,8 | 
[V:1] z4F4- | 
[V:2] G2F3GAB | 
[V:3] z8 :
[V:4] B,,6A,,G,, | 
[V:1] F2EDE2F2 | 
[V:2] c6BA | 
[V:3] x8 :
[V:4] A,,2B,,2C,4- | 
[V:1] G6FE | 
[V:2] G2B4AG | 
[V:3] x8 | 
[V:4] C,2B,,A,,B,,2C,2 | 
[V:1] F2G2A2GF | 
[V:2] F3DE2F2 | 
[V:3] A8 :
[V:4] D,2C,B,,A,,4 | 
[V:1] E4D4- | 
[V:2] G8 | 
[V:3] B8 :
[V:4] G,,8 | 
[V:1] D2z2F4- | 
[V:2] d8 | 
[V:3] B6AG | 
[V:4] z8 | 
[V:1] F2EDE2F2 | 
[V:2] z8 | 
[V:3] A2B2c4- :
[V:4] z8 | 
[V:1] G6FE | 
[V:2] z8 | 
[V:3] c2BAB2c2 :
[V:4] z8 | 
[V:1] F2G2A2B2- | 
[V:2] z8 | 
[V:3] d2B2c2d2- | 
[V:4] z8 | 
[V:1] BAA4G2 | 
[V:2] z8 | 
[V:3] dcBAB4 :
[V:4] z4G,,4 | 
[V:1] A8 | 
[V:2] z4A4- | 
[V:3] A8 :
[V:4] D,6C,B,, | 
[V:1] z8 | 
[V:2] A2GFG2A2 | 
[V:3] z8 | 
[V:4] C,2D,2_E,4- | 
[V:1] z8 | 
[V:2] B6AG | 
[V:3] z8 :
[V:4] E,2D,C,D,2=E,2 | 
[V:1] z8 | 
[V:2] A2B3AAG | 
[V:3] x8 :
[V:4] F,2D,2C,4 | 
[V:1] z2D4CB, | 
[V:2] B6AG | 
[V:3] x8 | 
[V:4] B,,8 | 
[V:1] D2E2F2E2 | 
[V:2] B2AGF2G2 | 
[V:3] z8 :
[V:4] z2C,2D,2C,2 | 
[V:1] F3GE4 | 
[V:2] F2D2G4 | 
[V:3] x8 :
[V:4] D,2B,,2C,4 | 
[V:1] z2D4CB, | 
[V:2] z2B4AG | 
[V:3] x8 | 
[V:4] B,,8 | 
[V:1] D2E2F2E2 | 
[V:2] B2AGF2G2 | 
[V:3] z8 :
[V:4] z2C,2D,2C,2 | 
[V:1] F3GE4 | 
[V:2] F2D2E4 | 
[V:3] A8 :
[V:4] D,2B,,2C,4 | 
[V:1] D8 | 
[V:2] F4G4 | 
[V:3] B8 | 
[V:4] B,,8 | 
[V:1] z4E4- | 
[V:2] A8 | 
[V:3] c8- :
[V:4] A,,8 | 
[V:1] E2E2E4 | 
[V:2] z4z2A2 | 
[V:3] c8- :
[V:4] z4C,4- | 
[V:1] z2A2G2c2- | 
[V:2] G2c3BA2- | 
[V:3] c8- | 
[V:4] C,2C,2C,4 | 
[V:1] cBA2G4 | 
[V:2] AGF4E2 | 
[V:3] c8 :
[V:4] z8 | 
[V:1] z2F2E2A2- | 
[V:2] F4z4 | 
[V:3] A8- :
[V:4] z2D,2C,2F,2- | 
[V:1] AGF2E4 | 
[V:2] D4E4 | 
[V:3] A8 | 
[V:4] F,E,D,2C,4 | 
[V:1] D3EF2G2 | 
[V:2] F6ED | 
[V:3] B6AG :
[V:4] B,,8 | 
[V:1] F2D2E2D2 | 
[V:2] F2G2C2F2- | 
[V:3] A2B2c2B2- :
[V:4] z2B,,2A,,2D,2- | 
[V:1] F2G2A4 | 
[V:2] FED4C2 | 
[V:3] BAG4^F2 | 
[V:4] D,C,B,,2A,,4 | 
[V:1] B3A/G/A2B2 | 
[V:2] D4z4 | 
[V:3] G4z2G2 :
[V:4] G,,4z2G,2 | 
[V:1] c2B3AG2- | 
[V:2] z8 | 
[V:3] A2G2B2c2 :
[V:4] F,2G,4C,2 | 
[V:1] G2F2G4 | 
[V:2] d4_e3d/c/ | 
[V:3] A4z4 | 
[V:4] D,4z4 | 
[V:1] z2C2D2C2 | 
[V:2] d2_e2f2_e2- | 
[V:3] z8 :
[V:4] z2C,2B,,2C,2- | 
[V:1] E2F2D4 | 
[V:2] edc4=B2 | 
[V:3] x4G4 :
[V:4] C,2F,,2G,,4 | 
[V:1] C4z2G2 | 
[V:2] c8- | 
[V:3] A2G4E2 | 
[V:4] C,8 | 
[V:1] A2G4E2 | 
[V:2] c8- | 
[V:3] F2G2E2A2- :
[V:4] z2C,4C,2 | 
[V:1] F2G2E2A2- | 
[V:2] c8- | 
[V:3] A2G2A2F2 :
[V:4] F,,2C,3B,,A,,G,, | 
[V:1] A2G2A3F | 
[V:2] c8- | 
[V:3] c3BAGA2- | 
[V:4] F,,2C,4F,,2 | 
[V:1] c3BAGA2- | 
[V:2] c8- | 
[V:3] A2GFE4 :
[V:4] z2C,4C,2 | 
[V:1] A2GFE2A2- | 
[V:2] c8- | 
[V:3] F2A2G2F2 :
[V:4] F,,2C,3B,,A,,G,, | 
[V:1] AGF4E2 | 
[V:2] c8- | 
[V:3] A4G4 | 
[V:4] F,,4C,4 | 
[V:1] F8 ||  
[V:2] c8 ||  
[V:3] F8 ||  
[V:4] F,,8 ||  
[V:1]  [K:F] [K:clef=treble][M:2/1]z8 | 
[V:2]  [K:F] [K:clef=treble-8][M:2/1]c8 | 
[V:3]  [K:F] [K:clef=treble-8][M:2/1]z8 | 
[V:4]  [K:F] [K:clef=bass][M:2/1]F,8- | 
[V:1] z8 | 
[V:2] d4c4- | 
[V:3] z8 | 
[V:4] F,8 | 
[V:1] z8 | 
[V:2] c2BAB4 | 
[V:3] z8 | 
[V:4] G,8 | 
[V:1] z8 | 
[V:2] A4z2d2- | 
[V:3] z8 | 
[V:4] F,6E,D, | 
[V:1] z8 | 
[V:2] dBc2F2B2 | 
[V:3] z8 | 
[V:4] E,4D,4 | 
[V:1] z8 | 
[V:2] A2B2G4 | 
[V:3] z8 | 
[V:4] z2G,3F,E,2- | 
[V:1] z8 | 
[V:2] z2c2B2A2- | 
[V:3] z8 | 
[V:4] E,2D,C,D,3E, | 
[V:1] z8 | 
[V:2] A2GFG2A2 | 
[V:3] z8 | 
[V:4] C,2F,2E,2D,2- | 
[V:1] z8 | 
[V:2] F2B2A3F | 
[V:3] z8 | 
[V:4] D,2C,B,,C,2D,2- | 
[V:1] z8 | 
[V:2] G2C2z2G2 | 
[V:3] z8 | 
[V:4] D,B,,C,2F,,2C,2- | 
[V:1] z8 | 
[V:2] A2B3AG2- | 
[V:3] z8 | 
[V:4] C,2B,,A,,B,,2C,2 | 
[V:1] z8 | 
[V:2] G2F4E2 | 
[V:3] z8 | 
[V:4] F,,4G,,4 | 
[V:1] z4C4 | 
[V:2] F4z2A2- | 
[V:3] z8 | 
[V:4] F,,8 | 
[V:1] C2D3CA,2 | 
[V:2] A2B3AA2- | 
[V:3] z8 | 
[V:4] z8 | 
[V:1] B,4A,4 | 
[V:2] A2G2A4 | 
[V:3] z8 | 
[V:4] z8 | 
[V:1] z2A4B2- | 
[V:2] c4c2d2- | 
[V:3] z8 | 
[V:4] z8 | 
[V:1] BAA4G2 | 
[V:2] dcA2B4 | 
[V:3] z8 | 
[V:4] z8 | 
[V:1] A4z4 | 
[V:2] A4A2B2- | 
[V:3] z8 | 
[V:4] z2C,4D,2- | 
[V:1] z4D4 | 
[V:2] BAA4G2 | 
[V:3] z8 | 
[V:4] D,C,A,,2B,,4 | 
[V:1] C4C2E2 | 
[V:2] A8 | 
[V:3] z8 | 
[V:4] A,,8 | 
[V:1] F2G4G2 | 
[V:2] z8 | 
[V:3] z8 | 
[V:4] z2G,,2B,,2C,2 | 
[V:1] F2A2B2c2- | 
[V:2] z8 | 
[V:3] z8 | 
[V:4] D,4D,2C,2 | 
[V:1] c2A2B2G2 | 
[V:2] z2A2G2B2 | 
[V:3] z8 | 
[V:4] E,2F,2G,4 | 
[V:1] A2F2G4 | 
[V:2] c2d4B2 | 
[V:3] z8 | 
[V:4] z2B,4G,2 | 
[V:1] F2A4G2- | 
[V:2] c2A2B2G2 | 
[V:3] z8 | 
[V:4] A,2F,4E,2 | 
[V:1] G2F4E2 | 
[V:2] A2F2G4 | 
[V:3] z8 | 
[V:4] F,2D,2C,4 | 
[V:1] F4z4 | 
[V:2] F2A3GG2- | 
[V:3] z8 | 
[V:4] z2A,,2B,,2G,,2 | 
[V:1] z8 | 
[V:2] GFF4E2 | 
[V:3] z8 | 
[V:4] A,,2F,,2G,,4 | 
[V:1] F8 | 
[V:2] F4z2c2- | 
[V:3] z8 | 
[V:4] F,,8- | 
[V:1] F8 | 
[V:2] cBAGF4- | 
[V:3] z8 | 
[V:4] F,,8 | 
[V:1] G8 | 
[V:2] F2EDE4 | 
[V:3] z8 | 
[V:4] z2C,3B,,A,,G,, | 
[V:1] z2A3GFE | 
[V:2] F8 | 
[V:3] z8 | 
[V:4] F,,8 | 
[V:1] D2F2E2D2- | 
[V:2] F4G4 | 
[V:3] z8 | 
[V:4] z2D,2C,2B,,2 | 
[V:1] D2F2E2D2 | 
[V:2] F4G4 | 
[V:3] z8 | 
[V:4] D,4C,2B,,2 | 
[V:1] z2A2G2F2- | 
[V:2] A4B4 | 
[V:3] z8 | 
[V:4] F,4z2D,2- | 
[V:1] F2A2G2F2 | 
[V:2] A4B4 | 
[V:3] z8 | 
[V:4] D,2F,2E,2D,2- | 
[V:1] z2c3BA2- | 
[V:2] A4c4- | 
[V:3] z8 | 
[V:4] D,2C,B,,A,,4 | 
[V:1] A2GFE2G2- | 
[V:2] c8 | 
[V:3] z8 | 
[V:4] z2C,4B,,A,, | 
[V:1] G2FED4 | 
[V:2] z8 | 
[V:3] z8 | 
[V:4] G,,2C,4=B,,2 | 
[V:1] C4z4 | 
[V:2] z2c4BA | 
[V:3] z8 | 
[V:4] C,4z2G,2- | 
[V:1] z8 | 
[V:2] G2c4=B2 | 
[V:3] z8 | 
[V:4] G,2F,E,D,4 | 
[V:1] z4z2E2- | 
[V:2] c2G2A2G2- | 
[V:3] z8 | 
[V:4] C,8 | 
[V:1] E2D2C2E2- | 
[V:2] GEFGA2G2- | 
[V:3] z8 | 
[V:4] z8 | 
[V:1] E2DCD4 | 
[V:2] G2c4=B2 | 
[V:3] z8 | 
[V:4] z8 | 
[V:1] C2G2A2G2- | 
[V:2] c4z2e2- | 
[V:3] z8 | 
[V:4] z8 | 
[V:1] GEFGA2G2- | 
[V:2] e2d2c2e2- | 
[V:3] z8 | 
[V:4] z8 | 
[V:1] G2c2z2B2 | 
[V:2] e2dcd4 | 
[V:3] z8 | 
[V:4] z4z2G,2 | 
[V:1] c3BA2G2 | 
[V:2] c8 | 
[V:3] z8 | 
[V:4] A,3G,F,2E,2 | 
[V:1] F4E4 | 
[V:2] z4z2c2 | 
[V:3] z8 | 
[V:4] D,4C,4 | 
[V:1] z8 | 
[V:2] d3cB2A2 | 
[V:3] z8 | 
[V:4] B,,2D,2E,2F,2- | 
[V:1] z2G2A3G | 
[V:2] G4F2A2 | 
[V:3] z8 | 
[V:4] F,2E,2F,3E, | 
[V:1] F2E2D4 | 
[V:2] B2c4=B2 | 
[V:3] z8 | 
[V:4] D,2C,2G,4 | 
[V:1] C8- | 
[V:2] c4z2F2- | 
[V:3] z8 | 
[V:4] C,4z2A,2- | 
[V:1] C8 | 
[V:2] F2E2F4 | 
[V:3] z8 | 
[V:4] A,2G,2A,4 | 
[V:1] C8- | 
[V:2] C4z2A2- | 
[V:3] z8 | 
[V:4] G,4z2F,2- | 
[V:1] C8 | 
[V:2] A2G2A4 | 
[V:3] z8 | 
[V:4] F,2E,2F,4 | 
[V:1] C8- | 
[V:2] G8 | 
[V:3] z8 | 
[V:4] C,8 | 
[V:1] C8 ||  
[V:2] G8 ||  
[V:3] z8 ||  
[V:4] C,8 ||  
[V:1]  [K:F] [K:clef=treble][M:2/1]F8 | 
[V:2]  [K:F] [K:clef=treble-8][M:2/1]d8 | 
[V:3]  [K:F] [K:clef=treble-8][M:2/1]A8 | 
[V:4]  [K:F] [K:clef=bass][M:2/1]D,8 | 
[V:1] F8 | 
[V:2] d8 | 
[V:3] B8 | 
[V:4] B,,8 | 
[V:1] !fermata!E8 | 
[V:2] !fermata!c8 | 
[V:3] !fermata!G8 | 
[V:4] !fermata!C,8 | 
[V:1] G8- | 
[V:2] G8 | 
[V:3] E8- | 
[V:4] z4C,4- | 
[V:1] G8 | 
[V:2] G3AB2c2- | 
[V:3] E8 | 
[V:4] C,2B,,A,,G,,2C,2 | 
[V:1] A8- | 
[V:2] cBAGA4 | 
[V:3] F8- | 
[V:4] F,,4z2D,2- | 
[V:1] A8 | 
[V:2] A3Bc2d2- | 
[V:3] F8 | 
[V:4] D,2C,B,,A,,2D,2 | 
[V:1] B4B2G2- | 
[V:2] dcBAB4- | 
[V:3] G8- | 
[V:4] G,,8 | 
[V:1] G2FED2G2 | 
[V:2] B4B4 | 
[V:3] G8 | 
[V:4] B,,8 | 
[V:1] C4z2A2- | 
[V:2] c2F2E2F2- | 
[V:3] A8- | 
[V:4] A,,8- | 
[V:1] A2GFE2A2 | 
[V:2] F2EDCDEF | 
[V:3] A8 | 
[V:4] A,,8 | 
[V:1] D4z2D2 | 
[V:2] G2FED2G2 | 
[V:3] B8 | 
[V:4] z8 | 
[V:1] E3FG2C2 | 
[V:2] C3DE2F2- | 
[V:3] c8- | 
[V:4] z4z2F,,2 | 
[V:1] C4z2C2 | 
[V:2] F2EDE2F2- | 
[V:3] c8 | 
[V:4] A,,3B,,C,3F,, | 
[V:1] F3GA2D2 | 
[V:2] FGA3DD2- | 
[V:3] A8 | 
[V:4] F,,8 | 
[V:1] D4z4 | 
[V:2] D2G4F2 | 
[V:3] B6A2 | 
[V:4] z4z2F,,2 | 
[V:1] z8 | 
[V:2] G2B2c2d2- | 
[V:3] G4F4 | 
[V:4] B,,3C,D,3G,, | 
[V:1] z4z2D2 | 
[V:2] dGG4B2- | 
[V:3] G8 | 
[V:4] G,,8 | 
[V:1] G3AB4 | 
[V:2] BAG3FED | 
[V:3] z4G4 | 
[V:4] z4B,,4 | 
[V:1] c6A2- | 
[V:2] E2A3GA2- | 
[V:3] A4c4- | 
[V:4] A,,4A,,3B,, | 
[V:1] ABc2A2c2 | 
[V:2] AGA3GA2 | 
[V:3] c4c4 | 
[V:4] C,2A,,2C,2A,,2 | 
[V:1] B2G3AB2 | 
[V:2] D2G3FG2- | 
[V:3] d8 | 
[V:4] G,,3A,,B,,2G,,2 | 
[V:1] G2B2A2G2- | 
[V:2] GFG2C2c2- | 
[V:3] B4c4 | 
[V:4] B,,2G,,2F,,2C,2 | 
[V:1] G2F4E2 | 
[V:2] c2B2c4 | 
[V:3] A2F2G4 | 
[V:4] D,4C,4 | 
[V:1] F8 ||  
[V:2] c8 ||  
[V:3] F8 ||  
[V:4] F,,8 ||  
[V:1]  [K:F] [K:clef=treble][M:2/1]z8 | 
[V:2]  [K:F] [K:clef=treble-8][M:2/1]z8 | 
[V:3]  [K:F] [K:clef=treble-8][M:2/1]F8- | 
[V:4]  [K:F] [K:clef=bass][M:2/1]F,,4F,,2G,,A,, | 
[V:1] z8 | 
[V:2] z8 | 
[V:3] F4A4- | 
[V:4] B,,2A,,4G,,F,, | 
[V:1] z8 | 
[V:2] z8 | 
[V:3] A2GFG4- | 
[V:4] C,4C,2B,,2 | 
[V:1] z8 | 
[V:2] z8 | 
[V:3] G4B4 | 
[V:4] C,2_E,4D,2- | 
[V:1] z8 | 
[V:2] z8 | 
[V:3] A6GF | 
[V:4] D,2C,2D,2F,2- | 
[V:1] z8 | 
[V:2] z8 | 
[V:3] A6Bc | 
[V:4] F,2E,D,C,4 | 
[V:1] z8 | 
[V:2] z8 | 
[V:3] d4z2c2- | 
[V:4] B,,2F,4E,2 | 
[V:1] z8 | 
[V:2] z8 | 
[V:3] c2B2A4 | 
[V:4] D,4z2C,2- | 
[V:1] z8 | 
[V:2] z8 | 
[V:3] z2G4F2 | 
[V:4] C,2B,,2A,,4 | 
[V:1] z8 | 
[V:2] z8 | 
[V:3] E4D4 | 
[V:4] G,,4z2B,,2 | 
[V:1] z8 | 
[V:2] z8 | 
[V:3] z2F2G2A2 | 
[V:4] C,2D,2_E,2D,2- | 
[V:1] z8 | 
[V:2] z8 | 
[V:3] B2A4G2 | 
[V:4] D,2C,2B,,4 | 
[V:1] z8 | 
[V:2] z8 | 
[V:3] A2d4c2 | 
[V:4] A,,2F,2G,2A,2 | 
[V:1] z8 | 
[V:2] z8 | 
[V:3] dcBAB4 | 
[V:4] B,2A,4G,2 | 
[V:1] z8 | 
[V:2] z8 | 
[V:3] A4z2F2 | 
[V:4] A,2F,4D,2 | 
[V:1] z8 | 
[V:2] z8 | 
[V:3] G4A4 | 
[V:4] E,4F,2D,2 | 
[V:1] z8 | 
[V:2] z8 | 
[V:3] B4c4 | 
[V:4] G,3F,E,D,C,2- | 
[V:1] z8 | 
[V:2] z8 | 
[V:3] F4G4 | 
[V:4] C,2F,4E,2 | 
[V:1] z8 | 
[V:2] z8 | 
[V:3] F4z2C2 | 
[V:4] F,4F,,4 | 
[V:1] z8 | 
[V:2] z8 | 
[V:3] D2E4F2- | 
[V:4] z2G,,2A,,4 | 
[V:1] z8 | 
[V:2] z8 | 
[V:3] FDGFEDC2- | 
[V:4] B,,4C,4 | 
[V:1] z8 | 
[V:2] z8 | 
[V:3] C2F4E2 | 
[V:4] F,,4G,,4 | 
[V:1] z8 ||  
[V:2] z8 ||  
[V:3] F8 ||  
[V:4] F,,8 ||  
[V:1]  [K:F] [K:clef=treble][M:2/1]z8 | 
[V:2]  [K:F] [K:clef=treble-8][M:2/1]F4F2GA | 
[V:3]  [K:F] [K:clef=treble-8][M:2/1]z8 | 
[V:4]  [K:F] [K:clef=bass][M:2/1]z8 | 
[V:1] F4F2GA | 
[V:2] B2A4GF | 
[V:3] z8 | 
[V:4] z8 | 
[V:1] B2A4GF | 
[V:2] G2F2c4 | 
[V:3] z8 | 
[V:4] z8 | 
[V:1] G2F2c4 | 
[V:2] B2A4GF | 
[V:3] z8 | 
[V:4] z8 | 
[V:1] B2A4GF | 
[V:2] G2F2A3G | 
[V:3] z8 | 
[V:4] z8 | 
[V:1] G2F2A3G | 
[V:2] E2D2F3E | 
[V:3] z8 | 
[V:4] z8 | 
[V:1] E2D2F3E | 
[V:2] C2D3CA,2- | 
[V:3] z8 | 
[V:4] z8 | 
[V:1] C4C2D2- | 
[V:2] A,2A4B2- | 
[V:3] z8 | 
[V:4] z8 | 
[V:1] DCA,2B,4 | 
[V:2] BAA4G2 | 
[V:3] z8 | 
[V:4] z8 | 
[V:1] A,2F2G2A2- | 
[V:2] A4B2c2- | 
[V:3] z8 | 
[V:4] z8 | 
[V:1] AGG4F2 | 
[V:2] cBAGA4 | 
[V:3] z8 | 
[V:4] z8 | 
[V:1] G2D2E2F2- | 
[V:2] G2B2c2d2- | 
[V:3] z8 | 
[V:4] z8 | 
[V:1] FEDCD4 | 
[V:2] dcc4=B2 | 
[V:3] z8 | 
[V:4] z8 | 
[V:1] C2E2F2G2- | 
[V:2] c2G2A2B2- | 
[V:3] z8 | 
[V:4] z8 | 
[V:1] GFF4E2 | 
[V:2] BAGFG4 | 
[V:3] z8 | 
[V:4] z8 | 
[V:1] F8 ||  
[V:2] F8 ||  
[V:3] z8 ||  
[V:4] z8 ||  



